src/assets/expertise/cloud/volution.svg

<?xml version="1.0" encoding="UTF-8"?>
<svg width="90px" height="90px" viewBox="0 0 90 90" version="1.1" xmlns="http://www.w3.org/2000/svg" xmlns:xlink="http://www.w3.org/1999/xlink">
    <!-- Generator: sketchtool 60 (101010) - https://sketch.com -->
    <title>691EDC2E-5A07-4E21-8C45-04FA54AD4209</title>
    <desc>Created with sketchtool.</desc>
    <defs>
        <polygon id="path-1" points="0.137741379 0.317586207 10.5456724 0.317586207 10.5456724 10.7254138 0.137741379 10.7254138"></polygon>
        <polygon id="path-3" points="0 0.316448276 10.4077759 0.316448276 10.4077759 10.7238621 0 10.7238621"></polygon>
    </defs>
    <g id="Écrans" stroke="none" stroke-width="1" fill="none" fill-rule="evenodd">
        <g id="2.0.0.1---Cloud" transform="translate(-1075.000000, -1140.000000)">
            <g id="web/cloud/2.0" transform="translate(0.000000, 921.000000)">
                <g transform="translate(108.000000, 69.000000)" id="bloc/expertise/modern-workplace-inactif">
                    <g transform="translate(824.000000, 131.000000)">
                        <g id="bloc/cloud/maximisation">
                            <g id="illustration/expertise/cloud/évolution" transform="translate(143.000000, 19.000000)">
                                <g id="Group-21" transform="translate(15.517241, 15.517241)">
                                    <g id="Group-3" transform="translate(23.793103, 0.199655)">
                                        <mask id="mask-2" fill="white">
                                            <use xlink:href="#path-1"></use>
                                        </mask>
                                        <g id="Clip-2"></g>
                                        <path d="M10.5456724,5.52144828 C10.5456724,8.39575862 8.2155,10.7254138 5.3417069,10.7254138 C2.46791379,10.7254138 0.137741379,8.39575862 0.137741379,5.52144828 C0.137741379,2.64765517 2.46791379,0.317482759 5.3417069,0.317482759 C8.2155,0.317482759 10.5456724,2.64765517 10.5456724,5.52144828" id="Fill-1" fill="#001A5C" mask="url(#mask-2)"></path>
                                    </g>
                                    <path d="M15.8142931,9.2397931 C17.8465345,11.2720345 17.8465345,14.5668621 15.8142931,16.5991034 C13.7820517,18.6313448 10.4872241,18.6313448 8.45498276,16.5991034 C6.42274138,14.5668621 6.42274138,11.2720345 8.45498276,9.2397931 C10.4872241,7.20755172 13.7820517,7.20755172 15.8142931,9.2397931" id="Fill-4" fill="#00D2B5"></path>
                                    <g id="Group-8" transform="translate(0.000000, 24.510000)">
                                        <mask id="mask-4" fill="white">
                                            <use xlink:href="#path-3"></use>
                                        </mask>
                                        <g id="Clip-7"></g>
                                        <path d="M5.20381034,0.316448276 C8.07812069,0.316448276 10.4077759,2.64610345 10.4077759,5.52041379 C10.4077759,8.3942069 8.07812069,10.7238621 5.20381034,10.7238621 C2.33001724,10.7238621 -0.000155172414,8.3942069 -0.000155172414,5.52041379 C-0.000155172414,2.64610345 2.33001724,0.316448276 5.20381034,0.316448276" id="Fill-6" fill="#001A5C" mask="url(#mask-4)"></path>
                                    </g>
                                    <path d="M8.72244828,43.3506724 C10.7546897,41.318431 14.0495172,41.318431 16.0817586,43.3506724 C18.114,45.383431 18.114,48.6777414 16.0817586,50.7105 C14.0495172,52.7422241 10.7546897,52.7422241 8.72244828,50.7105 C6.6902069,48.6777414 6.6902069,45.383431 8.72244828,43.3506724" id="Fill-9" fill="#00D2B5"></path>
                                    <path d="M24.3091552,53.9612069 C24.3091552,51.0874138 26.6388103,48.7572414 29.5131207,48.7572414 C32.3869138,48.7572414 34.716569,51.0874138 34.716569,53.9612069 C34.716569,56.8355172 32.3869138,59.1651724 29.5131207,59.1651724 C26.6388103,59.1651724 24.3091552,56.8355172 24.3091552,53.9612069" id="Fill-11" fill="#001A5C"></path>
                                    <path d="M42.8333793,50.442569 C40.8011379,48.4103276 40.8011379,45.1155 42.8333793,43.0832586 C44.8661379,41.0515345 48.1604483,41.0515345 50.1932069,43.0832586 C52.224931,45.1155 52.224931,48.4103276 50.1932069,50.442569 C48.1604483,52.4748103 44.8661379,52.4748103 42.8333793,50.442569" id="Fill-13" fill="#00D2B5"></path>
                                    <path d="M53.4438621,34.8561207 C50.570069,34.8561207 48.2398966,32.5259483 48.2398966,29.6521552 C48.2398966,26.7783621 50.570069,24.4481897 53.4438621,24.4481897 C56.3181724,24.4481897 58.6478276,26.7783621 58.6478276,29.6521552 C58.6478276,32.5259483 56.3181724,34.8561207 53.4438621,34.8561207" id="Fill-15" fill="#001A5C"></path>
                                    <path d="M49.9252241,16.3316379 C47.8929828,18.3638793 44.5981552,18.3638793 42.5659138,16.3316379 C40.5341897,14.2993966 40.5341897,11.004569 42.5659138,8.97232759 C44.5981552,6.94008621 47.8929828,6.94008621 49.9252241,8.97232759 C51.9574655,11.004569 51.9574655,14.2993966 49.9252241,16.3316379" id="Fill-17" fill="#00D2B5"></path>
                                    <polygon id="Fill-19" fill="#001A5C" points="21.3779483 35.5420345 29.3238103 21.1347931 37.2701897 35.5420345"></polygon>
                                </g>
                            </g>
                        </g>
                    </g>
                </g>
            </g>
        </g>
    </g>
</svg>

<svg xmlns="http://www.w3.org/2000/svg" xmlns:xlink="http://www.w3.org/1999/xlink" width="90" height="90" viewBox="0 0 90 90">
    <defs>
        <path id="8g9gh8sz4a" d="M0.138 0.318L10.546 0.318 10.546 10.725 0.138 10.725z"/>
        <path id="2r1lh4ir9c" d="M0 0.316L10.408 0.316 10.408 10.724 0 10.724z"/>
    </defs>
    <g fill="none" fill-rule="evenodd">
        <g>
            <g>
                <g>
                    <g>
                        <g>
                            <g>
                                <g transform="translate(-1075 -1140) translate(0 921) translate(932 200) translate(143 19) translate(15.517 15.517) translate(23.793 .2)">
                                    <mask id="ba6ym4m98b" fill="#fff">
                                        <use xlink:href="#8g9gh8sz4a"/>
                                    </mask>
                                    <path fill="#001A5C" d="M10.546 5.521c0 2.875-2.33 5.204-5.204 5.204-2.874 0-5.204-2.33-5.204-5.204 0-2.873 2.33-5.204 5.204-5.204 2.874 0 5.204 2.33 5.204 5.204" mask="url(#ba6ym4m98b)"/>
                                </g>
                                <path fill="#00D2B5" d="M15.814 9.24c2.033 2.032 2.033 5.327 0 7.36-2.032 2.031-5.327 2.031-7.359 0-2.032-2.033-2.032-5.328 0-7.36s5.327-2.032 7.36 0" transform="translate(-1075 -1140) translate(0 921) translate(932 200) translate(143 19) translate(15.517 15.517)"/>
                                <g transform="translate(-1075 -1140) translate(0 921) translate(932 200) translate(143 19) translate(15.517 15.517) translate(0 24.51)">
                                    <mask id="rtnruz6n2d" fill="#fff">
                                        <use xlink:href="#2r1lh4ir9c"/>
                                    </mask>
                                    <path fill="#001A5C" d="M5.204.316c2.874 0 5.204 2.33 5.204 5.204 0 2.874-2.33 5.204-5.204 5.204C2.33 10.724 0 8.394 0 5.52 0 2.646 2.33.316 5.204.316" mask="url(#rtnruz6n2d)"/>
                                </g>
                                <path fill="#00D2B5" d="M8.722 43.35c2.033-2.032 5.328-2.032 7.36 0 2.032 2.033 2.032 5.328 0 7.36s-5.327 2.032-7.36 0c-2.032-2.032-2.032-5.327 0-7.36" transform="translate(-1075 -1140) translate(0 921) translate(932 200) translate(143 19) translate(15.517 15.517)"/>
                                <path fill="#001A5C" d="M24.31 53.961c0-2.874 2.329-5.204 5.203-5.204s5.204 2.33 5.204 5.204c0 2.875-2.33 5.204-5.204 5.204-2.874 0-5.204-2.33-5.204-5.204" transform="translate(-1075 -1140) translate(0 921) translate(932 200) translate(143 19) translate(15.517 15.517)"/>
                                <path fill="#00D2B5" d="M42.833 50.443c-2.032-2.033-2.032-5.328 0-7.36 2.033-2.031 5.327-2.031 7.36 0 2.032 2.032 2.032 5.327 0 7.36-2.033 2.032-5.327 2.032-7.36 0" transform="translate(-1075 -1140) translate(0 921) translate(932 200) translate(143 19) translate(15.517 15.517)"/>
                                <path fill="#001A5C" d="M53.444 34.856c-2.874 0-5.204-2.33-5.204-5.204 0-2.874 2.33-5.204 5.204-5.204 2.874 0 5.204 2.33 5.204 5.204 0 2.874-2.33 5.204-5.204 5.204" transform="translate(-1075 -1140) translate(0 921) translate(932 200) translate(143 19) translate(15.517 15.517)"/>
                                <path fill="#00D2B5" d="M49.925 16.332c-2.032 2.032-5.327 2.032-7.36 0-2.03-2.033-2.03-5.327 0-7.36 2.033-2.032 5.328-2.032 7.36 0 2.032 2.033 2.032 5.327 0 7.36" transform="translate(-1075 -1140) translate(0 921) translate(932 200) translate(143 19) translate(15.517 15.517)"/>
                                <path fill="#001A5C" d="M21.378 35.542L29.324 21.135 37.27 35.542z" transform="translate(-1075 -1140) translate(0 921) translate(932 200) translate(143 19) translate(15.517 15.517)"/>
                            </g>
                        </g>
                    </g>
                </g>
            </g>
        </g>
    </g>
</svg>
